X: 10
T: Missa Assumpta est Maria / Credo
N: Derived from Rue1003c-Missa_Assumpta_est_Maria-Credo.krn
C: Pierre de la Rue
%%abc-version 2.0
%%abcx-abcm2ps-target-version 5.9.1 (29 Sep 2008)
%%abc-creator hum2abc beta
%%abcx-conversion-date 2019/02/17 08:01:09
%%abc-edited-by Jesse Rodin
%%abc-edited-by Chris Gage 11-26-2012
%%abcx-initial-encoding-date 2013/05/19/
%%humdrum-veritas 3573005549
%%humdrum-veritas-data 1075683584
%%linebreak <none>
%%barnumbers 0
L: 1/4
M: 3/1
Q: 1/2=120
%%staves [1 2 3 4]
V: 1 clef=treble-8
V: 2 clef=treble-8
V: 3 clef=bass
V: 4 clef=bass
K: F
[V:1] c8c4 | 
[V:2] c8A4 | 
[V:3] z12 | 
[V:4] z12 | 
[V:1] A8c4 | 
[V:2] c4c2A3BcA | 
[V:3] z12 | 
[V:4] z12 | 
[V:1] d3Bdef4e2 | 
[V:2] B2G2B6c2 | 
[V:3] z12 | 
[V:4] z12 | 
[V:1] !fermata!e8f4 | 
[V:2] !fermata!c8d4 | 
[V:3] z12 | 
[V:4] z12 | 
[V:1] f2f4f2fedc | 
[V:2] d2d4d2dcBA | 
[V:3] z12 | 
[V:4] z12 | 
[V:1] d2c2dcf4e2 | 
[V:2] B2A2BAGFG4 | 
[V:3] z12 | 
[V:4] z12 | 
[V:1] f8z2cd | 
[V:2] F4z2FGABc2- | 
[V:3] z12 | 
[V:4] z12 | 
[V:1] efg4g3ff2 | 
[V:2] c2c3cc2B2A2 | 
[V:3] z12 | 
[V:4] z12 | 
[V:1] g4e2d2z2d2 | 
[V:2] G4G2B3cd2- | 
[V:3] z12 | 
[V:4] z12 | 
[V:1] f4e2d3ec2 | 
[V:2] d2d2c2B3cA2 | 
[V:3] z12 | 
[V:4] z12 | 
[V:1] Bcded2c4=B2 | 
[V:2] G3EFEDCD4 | 
[V:3] z12 | 
[V:4] z12 | 
[V:1] c12 | 
[V:2] C12 | 
[V:3] z4z4C,4 | 
[V:4] z4z4C,4 | 
[V:1] z12 | 
[V:2] z12 | 
[V:3] C,4C,4E,4 | 
[V:4] F,,2A,,3B,,C,3B,,G,,2 | 
[V:1] z12 | 
[V:2] z12 | 
[V:3] F,2G,3F,D,2E,2D,2- | 
[V:4] A,,2G,,4B,,2C,2B,,2 | 
[V:1] z12 | 
[V:2] z12 | 
[V:3] D,2D,2F,2G,2F,2D,E, | 
[V:4] G,,A,,B,,C,D,2G,,2z2D,2- | 
[V:1] z12 | 
[V:2] z12 | 
[V:3] F,G,A,2D,2A,4A,2 | 
[V:4] D,2D,2D,4C,2D,2- | 
[V:1] z12 | 
[V:2] z12 | 
[V:3] A,2B,4A,4G,2 | 
[V:4] D,2G,,2D,2C,2A,,2B,,2 | 
[V:1] z12 | 
[V:2] z12 | 
[V:3] E,2F,2G,2E,2F,2D,2 | 
[V:4] C,2A,,2B,,2G,,2F,,G,,A,,B,, | 
[V:1] z12 | 
[V:2] z12 | 
[V:3] C,D,E,F,G,2F,4E,2 | 
[V:4] C,2B,,A,,B,,A,,G,,F,,G,,4 | 
[V:1] c4c2c2A2c2- | 
[V:2] A4A2A2F4 | 
[V:3] F,12 | 
[V:4] F,,12 | 
[V:1] c2d2d2f4e2 | 
[V:2] E2D2B2B2A2G2 | 
[V:3] z12 | 
[V:4] z12 | 
[V:1] d4d2g3fed | 
[V:2] F2G3FEDC4 | 
[V:3] z12 | 
[V:4] z12 | 
[V:1] c4z4z4 | 
[V:2] z12 | 
[V:3] C,4C,2B,,2A,,4 | 
[V:4] A,,4A,,2G,,4F,,2 | 
[V:1] z12 | 
[V:2] z12 | 
[V:3] G,,2D,2D,2D,2E,2E,2 | 
[V:4] G,,4z2G,,2G,,2G,,2 | 
[V:1] z12 | 
[V:2] z12 | 
[V:3] C,4z4F,4 | 
[V:4] A,,2A,,2F,,4z2B,,2 | 
[V:1] z12 | 
[V:2] z12 | 
[V:3] E,2D,2G,4F,3E, | 
[V:4] C,2D,2G,,2B,,4A,,2 | 
[V:1] f4e2d2g4 | 
[V:2] z4z4G4 | 
[V:3] D,2C,4D,4C,2 | 
[V:4] F,,3A,,G,,2F,,2E,,4 | 
[V:1] f4e2d4c2 | 
[V:2] B2A3GF2E4 | 
[V:3] D,4z4z4 | 
[V:4] z12 | 
[V:1] d2f3ec3def | 
[V:2] D2A2G2A3Bc2- | 
[V:3] z4z2F,2E,2C,2- | 
[V:4] z12 | 
[V:1] g2e2dcc4=B2 | 
[V:2] c2B3AG4F2 | 
[V:3] C,D,E,F,G,2C,2D,4 | 
[V:4] z12 | 
[V:1] c8z4 | 
[V:2] G8G4 | 
[V:3] C,8z4 | 
[V:4] C,6B,,A,,G,,4 | 
[V:1] c3cA2c2F2c2 | 
[V:2] A3Ac2A2c2F2 | 
[V:3] C,12 | 
[V:4] F,,2F,,2F,,4F,,4 | 
[V:1] ABcdefg4f2- | 
[V:2] c4c2c4BA | 
[V:3] C,12 | 
[V:4] F,,G,,A,,B,,C,4A,,2F,,2 | 
[V:1] fee2f2f2e4- | 
[V:2] G2G2A4G4 | 
[V:3] C,12 | 
[V:4] C,4F,,4C,4- | 
[V:1] e4g4g4 | 
[V:2] G3AB2c4c2 | 
[V:3] E,12 | 
[V:4] C,4G,,2C,3B,,A,,G,, | 
[V:1] a2a2agfed4- | 
[V:2] A8d2d2 | 
[V:3] F,12 | 
[V:4] F,,4D,2D,2D,C,B,,A,, | 
[V:1] d4g4g4 | 
[V:2] dcBAG2c4=B2 | 
[V:3] G,12- | 
[V:4] G,,12 | 
[V:1] e8z4 | 
[V:2] c4z4z4 | 
[V:3] G,12 | 
[V:4] C,4z2C,2C,2C,2 | 
[V:1] z2c2c2c2f4 | 
[V:2] z4z2A2A2A2 | 
[V:3] A,12 | 
[V:4] F,4F,2F,2D,4- | 
[V:1] f2f2d4z2d2 | 
[V:2] d4d2d2A4 | 
[V:3] F,12 | 
[V:4] D,4z2D,2D,2D,2 | 
[V:1] d2d2_e2d4c2 | 
[V:2] z2B2G2B3ABc | 
[V:3] G,12- | 
[V:4] G,,12- | 
[V:1] B4A2d2c2d2- | 
[V:2] d4z4z4 | 
[V:3] G,4F,8 | 
[V:4] G,,4D,4A,,2B,,2- | 
[V:1] defe/f/g2c3ded/e/ | 
[V:2] B4B2c2A2G2 | 
[V:3] z12 | 
[V:4] B,,C,D,2G,,2A,,3B,,C,2 | 
[V:1] fedcd2c4=B2 | 
[V:2] A2F3EC2D4 | 
[V:3] z12 | 
[V:4] F,,2B,,3C,A,,2G,,4 | 
[V:1] c12 | 
[V:2] C12 | 
[V:3] z4z4F,4 | 
[V:4] z4z4F,,4 | 
[V:1] z12 | 
[V:2] z12 | 
[V:3] E,2E,2C,4C,4 | 
[V:4] C,2C,2A,,4A,,4 | 
[V:1] z12 | 
[V:2] z12 | 
[V:3] D,6D,2C,2D,2- | 
[V:4] G,,2B,,3A,,G,,2A,,2G,,2- | 
[V:1] z12 | 
[V:2] z12 | 
[V:3] D,E,F,2E,4D,4 | 
[V:4] G,,2D,4C,2B,,2G,,2- | 
[V:1] z12 | 
[V:2] z12 | 
[V:3] z2G,4F,2E,2C,2- | 
[V:4] G,,2B,,2A,,4G,,2A,,2- | 
[V:1] z12 | 
[V:2] z12 | 
[V:3] C,2E,2D,4C,4 | 
[V:4] A,,G,,C,4=B,,2C,4 | 
[V:1] c8c4 | 
[V:2] A8A4 | 
[V:3] F,8F,4 | 
[V:4] F,,8F,,4 | 
[V:1] c4A4A4 | 
[V:2] A4c4c4 | 
[V:3] F,4F,4F,4 | 
[V:4] F,,4F,,4F,,4 | 
[V:1] !fermata!G8z4 | 
[V:2] !fermata!c8z4 | 
[V:3] !fermata!E,8z4 | 
[V:4] !fermata!C,8z4 | 
[V:1] z4c4c2c2 | 
[V:2] G4G2G2A2G2- | 
[V:3] E,8E,4- | 
[V:4] C,4C,2C,2C,4 | 
[V:1] c3de2f4e2 | 
[V:2] G2E2E2A4G2 | 
[V:3] E,4C,8 | 
[V:4] C,2C,2A,,2F,,2A,,4- | 
[V:1] c2e4d2B2d2- | 
[V:2] E3FG8 | 
[V:3] C,4D,4D,4 | 
[V:4] A,,4G,,4z2B,,2- | 
[V:1] d2c2A2c3dB2 | 
[V:2] z12 | 
[V:3] F,12- | 
[V:4] B,,2A,,2F,,2A,,4B,,2 | 
[V:1] A4G4z2d2 | 
[V:2] z4B8 | 
[V:3] F,4z4z4 | 
[V:4] C,2D,2G,,8- | 
[V:1] d2d2e2e2f4 | 
[V:2] B2B2c2c2d4 | 
[V:3] z12 | 
[V:4] G,,4z4B,,4 | 
[V:1] z2d2d2d2e2e2 | 
[V:2] z2B2B2B2c2c2 | 
[V:3] z12 | 
[V:4] B,,2B,,2D,2D,2C,4 | 
[V:1] f4d4f4- | 
[V:2] d4B4d4- | 
[V:3] F,12 | 
[V:4] B,,8B,,4- | 
[V:1] f4f4e4 | 
[V:2] d4B4c4 | 
[V:3] F,8G,4 | 
[V:4] B,,4D,4C,4 | 
[V:1] d4g8 | 
[V:2] B2d4c3BB2 | 
[V:3] G,6F,E,D,4 | 
[V:4] G,,8G,,4 | 
[V:1] e2c4f4e2 | 
[V:2] c4z2c3BG2 | 
[V:3] C,2C,2F,3E,D,2C,2 | 
[V:4] C,4A,,2F,,4C,2- | 
[V:1] dcd4c4=B2 | 
[V:2] A2B2G8 | 
[V:3] F,4E,2C,2D,4 | 
[V:4] C,2B,,2C,4G,,4 | 
[V:1] c12 ||  
[V:2] G12 ||  
[V:3] C,12 ||  
[V:4] C,12 ||  
[V:1]  [K:F] [K:clef=treble-8][M:2/1]c8 | 
[V:2]  [K:F] [K:clef=treble-8][M:2/1]A8 | 
[V:3]  [K:F] [K:clef=bass][M:2/1]F,8- | 
[V:4]  [K:F] [K:clef=bass][M:2/1]F,,8 | 
[V:1] c4c4 | 
[V:2] A4A4 | 
[V:3] F,8 | 
[V:4] F,,4F,,4 | 
[V:1] A4c4- | 
[V:2] c4A4- | 
[V:3] F,4F,4 | 
[V:4] F,,8 | 
[V:1] c4c4 | 
[V:2] A4A3B | 
[V:3] F,8 | 
[V:4] F,,4F,,3G,, | 
[V:1] c2d4cB | 
[V:2] c2B4B2 | 
[V:3] F,8- | 
[V:4] A,,2B,,4A,,G,, | 
[V:1] c2d2A4 | 
[V:2] F4c4 | 
[V:3] F,8 | 
[V:4] A,,2B,,2F,,4 | 
[V:1] z8 | 
[V:2] c2d4cB | 
[V:3] F,8 | 
[V:4] z8 | 
[V:1] z8 | 
[V:2] c2d2A4 | 
[V:3] F,4F,4 | 
[V:4] z8 | 
[V:1] c4c2d2- | 
[V:2] z8 | 
[V:3] F,8 | 
[V:4] F,,3G,,A,,2B,,2- | 
[V:1] d2cBc2d2 | 
[V:2] z8 | 
[V:3] F,8 | 
[V:4] B,,2A,,G,,A,,2B,,2 | 
[V:1] A2c4c2 | 
[V:2] A4A4 | 
[V:3] F,8 | 
[V:4] F,,2F,,2F,,2F,,2 | 
[V:1] B2G3ABc | 
[V:2] G2B3AG2 | 
[V:3] D,8 | 
[V:4] G,,8 | 
[V:1] A2G4d2 | 
[V:2] A2B2G4 | 
[V:3] D,8 | 
[V:4] F,,2G,,4B,,2- | 
[V:1] d2f3edc | 
[V:2] F3GA2B2- | 
[V:3] D,8- | 
[V:4] B,,C,D,3C,B,,A,, | 
[V:1] d2B2c4 | 
[V:2] B2G4^F2 | 
[V:3] D,4C,4 | 
[V:4] G,,2B,,2A,,4 | 
[V:1] B8 | 
[V:2] G4z2G2 | 
[V:3] D,8- | 
[V:4] G,,4z2G,,2 | 
[V:1] z2d2d2d2 | 
[V:2] B2B2B2B2 | 
[V:3] D,8 | 
[V:4] G,,2G,,2G,,2G,,2 | 
[V:1] d2d2f4 | 
[V:2] B6AG | 
[V:3] z8 | 
[V:4] B,,4B,,4- | 
[V:1] f6ed | 
[V:2] F4F4- | 
[V:3] z8 | 
[V:4] B,,2A,,G,,F,,3G,, | 
[V:1] c2d3cc2 | 
[V:2] F2D2E4 | 
[V:3] z8 | 
[V:4] A,,2B,,2A,,G,,A,,2 | 
[V:1] d2c4A2 | 
[V:2] D2E2F2F2- | 
[V:3] z8 | 
[V:4] B,,2A,,2F,,2A,,2 | 
[V:1] B3cA4 | 
[V:2] F2E2F4 | 
[V:3] z8 | 
[V:4] G,,4F,,4 | 
[V:1] z2c2c2c2 | 
[V:2] z2A2A2A2 | 
[V:3] F,4F,2F,2 | 
[V:4] F,,4F,,2F,,2 | 
[V:1] A2c4BA | 
[V:2] A2A2A2A2 | 
[V:3] F,4F,4 | 
[V:4] F,,2F,,2F,,2F,,2 | 
[V:1] B3cA2F2 | 
[V:2] D4A4 | 
[V:3] F,4F,4- | 
[V:4] B,,4F,,4 | 
[V:1] A3BG4 | 
[V:2] c6c2 | 
[V:3] F,4E,4 | 
[V:4] F,,2F,,2C,4 | 
[V:1] F2f4ed | 
[V:2] A4z2c2- | 
[V:3] F,8 | 
[V:4] D,2D,2F,4 | 
[V:1] e2f2d2c2- | 
[V:2] c2BAB2c2 | 
[V:3] z8 | 
[V:4] C,2D,2B,,2A,,2- | 
[V:1] c2d2c2f2- | 
[V:2] A2F2A3B | 
[V:3] z8 | 
[V:4] A,,2B,,2A,,2F,,2 | 
[V:1] f2e2f4 | 
[V:2] G4F4 | 
[V:3] z8 | 
[V:4] C,4F,,4 | 
[V:1] z2f2f2f2 | 
[V:2] z4c4 | 
[V:3] F,8 | 
[V:4] z4F,,4- | 
[V:1] f4f2f2 | 
[V:2] c2c2c2c2 | 
[V:3] F,4F,4 | 
[V:4] F,,2F,,2F,,2F,,2 | 
[V:1] e2e2d4 | 
[V:2] c2c2d4 | 
[V:3] G,8- | 
[V:4] C,2C,2B,,2B,,2 | 
[V:1] z2d4d2 | 
[V:2] B4z2B2- | 
[V:3] G,8 | 
[V:4] G,,8 | 
[V:1] g2g2g4 | 
[V:2] B2B2B2B2 | 
[V:3] G,8- | 
[V:4] z2G,,4G,,2 | 
[V:1] e2e2c2c2 | 
[V:2] G4G2G2 | 
[V:3] G,8 | 
[V:4] C,2C,2C,4 | 
[V:1] c4f4 | 
[V:2] c2c2c4 | 
[V:3] A,8 | 
[V:4] A,,2A,,2F,,2F,,2 | 
[V:1] e2g3fd2- | 
[V:2] c2c2A2B2- | 
[V:3] G,4E,2F,2- | 
[V:4] C,4C,2B,,2 | 
[V:1] d2c3=B=B2 | 
[V:2] B2A2G4 | 
[V:3] F,2E,2D,4 | 
[V:4] B,,2C,2G,,4 | 
[V:1] c8 | 
[V:2] z4c4 | 
[V:3] C,8 | 
[V:4] C,8 | 
[V:1] z8 | 
[V:2] c4c4 | 
[V:3] z8 | 
[V:4] z4F,4 | 
[V:1] z8 | 
[V:2] A4A4 | 
[V:3] z8 | 
[V:4] F,4F,4 | 
[V:1] z8 | 
[V:2] B3ABAc2 | 
[V:3] z8 | 
[V:4] D,4D,2E,2- | 
[V:1] z8 | 
[V:2] G3FGEF2- | 
[V:3] z8 | 
[V:4] E,D,E,D,E,2D,2- | 
[V:1] z8 | 
[V:2] FGE2D4 | 
[V:3] z8 | 
[V:4] D,2C,3=B,,=B,,2 | 
[V:1] z4e4 | 
[V:2] C8 | 
[V:3] G,8 | 
[V:4] C,8- | 
[V:1] e4e4 | 
[V:2] z8 | 
[V:3] G,4G,4 | 
[V:4] C,8 | 
[V:1] d4d2c2- | 
[V:2] z8 | 
[V:3] G,4G,2A,2- | 
[V:4] z8 | 
[V:1] cBB2c2A2 | 
[V:2] z8 | 
[V:3] A,G,G,4^F,2 | 
[V:4] z8 | 
[V:1] B4G4 | 
[V:2] z2G2G2G2 | 
[V:3] G,8 | 
[V:4] z8 | 
[V:1] z8 | 
[V:2] B4G4 | 
[V:3] z8 | 
[V:4] z2G,,2G,,2G,,2 | 
[V:1] z2d2d2d2 | 
[V:2] F4z4 | 
[V:3] z8 | 
[V:4] B,,4G,,4 | 
[V:1] f4d4 | 
[V:2] F4F2F2 | 
[V:3] z8 | 
[V:4] F,,4F,,4 | 
[V:1] c8 | 
[V:2] c6B2 | 
[V:3] z8 | 
[V:4] F,,2F,,2C,4- | 
[V:1] c4c2c2 | 
[V:2] A2G4F2 | 
[V:3] z8 | 
[V:4] C,2B,,2A,,4 | 
[V:1] g6f2 | 
[V:2] E2D4d2- | 
[V:3] G,8 | 
[V:4] G,,8- | 
[V:1] e3fd4 | 
[V:2] d2c3=B=B2 | 
[V:3] G,4G,4 | 
[V:4] G,,8 | 
[V:1] c8 | 
[V:2] c8- | 
[V:3] E,4C,4 | 
[V:4] C,8 | 
[V:1] z8 | 
[V:2] c8 | 
[V:3] G,4G,2A,2- | 
[V:4] C,4C,4 | 
[V:1] z8 | 
[V:2] z8 | 
[V:3] A,2F,4D,2- | 
[V:4] A,,4F,,4- | 
[V:1] z8 | 
[V:2] z8 | 
[V:3] D,2C,2D,2F,2 | 
[V:4] F,,8 | 
[V:1] z8 | 
[V:2] z8 | 
[V:3] E,2D,4G,2- | 
[V:4] z2F,,2G,,2B,,2 | 
[V:1] z8 | 
[V:2] z8 | 
[V:3] G,^F,F,2G,4- | 
[V:4] A,,4G,,4 | 
[V:1] z8 | 
[V:2] z8 | 
[V:3] G,4E,4 | 
[V:4] C,4C,2C,2 | 
[V:1] z8 | 
[V:2] z8 | 
[V:3] E,2E,2F,4 | 
[V:4] A,,4A,,2B,,2- | 
[V:1] z8 | 
[V:2] z8 | 
[V:3] D,4C,2D,2- | 
[V:4] B,,2G,,2A,,2B,,2- | 
[V:1] z8 | 
[V:2] z8 | 
[V:3] D,2C,B,,A,,2A,,2 | 
[V:4] B,,A,,G,,4^F,,2 | 
[V:1] z8 | 
[V:2] z8 | 
[V:3] G,,4z2G,2 | 
[V:4] G,,8- | 
[V:1] z2g2g2g2 | 
[V:2] z8 | 
[V:3] G,3F,E,2D,2 | 
[V:4] G,,8 | 
[V:1] e3dc4 | 
[V:2] z4z2c2 | 
[V:3] C,4z4 | 
[V:4] z2C,2C,2C,2 | 
[V:1] z2f3ga2 | 
[V:2] c2c2A2A2 | 
[V:3] C,4F,4 | 
[V:4] A,,3G,,F,,4 | 
[V:1] b4a2g2- | 
[V:2] G4c4 | 
[V:3] D,3E,F,2G,2 | 
[V:4] G,,4F,,E,,3 | 
[V:1] g2f3ee2 | 
[V:2] c4c4 | 
[V:3] A,4G,4 | 
[V:4] F,,4C,4 | 
[V:1] f8 | 
[V:2] A8 | 
[V:3] F,8- | 
[V:4] F,,8 | 
[V:1] z4f4 | 
[V:2] z4d4 | 
[V:3] F,8 | 
[V:4] z4B,,4 | 
[V:1] f4f4 | 
[V:2] d4c4 | 
[V:3] z2F,2F,2F,2 | 
[V:4] B,,4A,,4 | 
[V:1] g4b4- | 
[V:2] B4d4- | 
[V:3] B,,2D,4C,B,, | 
[V:4] G,,8 | 
[V:1] b4a4- | 
[V:2] d4c4 | 
[V:3] D,2E,2F,4- | 
[V:4] B,,4F,,3G,, | 
[V:1] a2g2f4 | 
[V:2] c2B3AB2 | 
[V:3] F,4D,2F,2 | 
[V:4] A,,2B,,4D,2 | 
[V:1] e4e4 | 
[V:2] cBAGA4 | 
[V:3] G,F,E,D,E,4 | 
[V:4] C,3B,,C,4 | 
[V:1] d4z2d2 | 
[V:2] B4z2B2 | 
[V:3] F,8 | 
[V:4] B,,8 | 
[V:1] d2d2f4- | 
[V:2] B2B2d4- | 
[V:3] z2F,4F,2 | 
[V:4] z2B,,4B,,2 | 
[V:1] f2e2d4 | 
[V:2] d2c2B4 | 
[V:3] F,2F,2F,2F,2 | 
[V:4] B,,2B,,2B,,4 | 
[V:1] c3BcBAG | 
[V:2] A8 | 
[V:3] F,2F,2F,4- | 
[V:4] F,,8 | 
[V:1] A4G4 | 
[V:2] z4c4 | 
[V:3] F,4E,4- | 
[V:4] z8 | 
[V:1] z4g4 | 
[V:2] c2c2G4 | 
[V:3] E,8 | 
[V:4] C,4C,2C,2 | 
[V:1] g2g2d4 | 
[V:2] G2B4AG | 
[V:3] z8 | 
[V:4] G,,4G,,2B,,2- | 
[V:1] d2f4ed | 
[V:2] F2c4c2 | 
[V:3] z8 | 
[V:4] B,,2A,,G,,F,,2C,2- | 
[V:1] c2g4g2 | 
[V:2] G3AB2AG | 
[V:3] z4D,4 | 
[V:4] C,2C,2G,,2B,,2- | 
[V:1] d2f4ed | 
[V:2] F4A3B | 
[V:3] F,8 | 
[V:4] B,,2A,,G,,F,,3G,, | 
[V:1] c2d4c2- | 
[V:2] c2B4A2- | 
[V:3] E,2G,4E,2 | 
[V:4] A,,2G,,4A,,2 | 
[V:1] c2BAB4 | 
[V:2] A2A2G4 | 
[V:3] F,4D,4- | 
[V:4] F,,4G,,4 | 
[V:1] z4B4 | 
[V:2] z4G4 | 
[V:3] D,4D,4 | 
[V:4] z4G,,4 | 
[V:1] c4A4 | 
[V:2] E4F4 | 
[V:3] C,4D,4 | 
[V:4] A,,4F,,4 | 
[V:1] B4B2G2- | 
[V:2] D6E2 | 
[V:3] G,8 | 
[V:4] G,,3A,,B,,2C,2- | 
[V:1] G2c4A2 | 
[V:2] C4z4 | 
[V:3] E,4F,4 | 
[V:4] C,2A,,4D,2- | 
[V:1] B2G4^F2 | 
[V:2] z4c4 | 
[V:3] D,4C,4 | 
[V:4] D,C,B,,2A,,4 | 
[V:1] G4z2G2 | 
[V:2] B4G2B2- | 
[V:3] D,8 | 
[V:4] G,,4z2G,,2- | 
[V:1] B2c2d2e2- | 
[V:2] B2A2F2c2- | 
[V:3] z2C,2F,2E,2 | 
[V:4] G,,2A,,2B,,2C,2- | 
[V:1] e2c4f2- | 
[V:2] c2A2A4 | 
[V:3] C,4F,4 | 
[V:4] C,2F,,2F,,4 | 
[V:1] f2e2d2g2- | 
[V:2] z2c2A2B2 | 
[V:3] G,4F,2D,2- | 
[V:4] C,4z2G,,2- | 
[V:1] g2f3edc | 
[V:2] G2A3Bc2 | 
[V:3] D,2F,3G,A,2 | 
[V:4] G,,2D,3C,B,,A,, | 
[V:1] g2fedcd2- | 
[V:2] d3cBAB2- | 
[V:3] B,4G,2F,2- | 
[V:4] G,,2B,,4B,,2 | 
[V:1] d2c4B2 | 
[V:2] BAGFG4 | 
[V:3] F,E,D,C,D,4 | 
[V:4] C,4G,,4 | 
[V:1] c2f3edc | 
[V:2] F8 | 
[V:3] C,8 | 
[V:4] A,,2F,,2A,,4 | 
[V:1] !fermata!=B8 | 
[V:2] !fermata!G8- | 
[V:3] !fermata!D,8 | 
[V:4] !fermata!G,,8 | 
[V:1] c8 |]  
[V:2] G8 |]  
[V:3] C,8 |]  
[V:4] C,,8 & C,8 |]  



